cdn/fa/svgs/sharp-light/arrow-up-from-bracket.svg

<svg xmlns="http://www.w3.org/2000/svg" viewBox="0 0 448 512"><!--! Font Awesome Pro 6.5.2 by @fontawesome - https://fontawesome.com License - https://fontawesome.com/license (Commercial License) Copyright 2024 Fonticons, Inc. --><path d="M235.3 12.7L224 1.4 212.7 12.7l-128 128L73.4 152 96 174.6l11.3-11.3L208 62.6 208 336l0 16 32 0 0-16 0-273.4L340.7 163.3 352 174.6 374.6 152l-11.3-11.3-128-128zM32 336l0-16L0 320l0 16L0 496l0 16 16 0 416 0 16 0 0-16 0-160 0-16-32 0 0 16 0 144L32 480l0-144z"/></svg>

<svg xmlns="http://www.w3.org/2000/svg" viewBox="0 0 448 512"><!--! Font Awesome Pro 6.5.1 by @fontawesome - https://fontawesome.com License - https://fontawesome.com/license (Commercial License) Copyright 2023 Fonticons, Inc. --><path d="M235.3 12.7L224 1.4 212.7 12.7l-128 128L73.4 152 96 174.6l11.3-11.3L208 62.6V336v16h32V336 62.6L340.7 163.3 352 174.6 374.6 152l-11.3-11.3-128-128zM32 336V320H0v16V496v16H16 432h16V496 336 320H416v16V480H32V336z"/></svg>
